X:905
T:Welcome to Your Feet Again
R:Strathspey
B:The Athole Collection
M:C|
L:1/8
K:C
E|:C>EG>A cE D2|C>EG>A c<G A>G|F<cE<c d<E D>E|1 C>EG>A c>G A<c:|2
c>G A<a||
|:g<c g>a g<c d>e|g<c g>a g>ag>e|f>g a/g/f/e/ d>=c d<e|1 c>GA>G c>GAa:|2
c>de>d c<GA<c||

